elide/concept/src/icon-pen.svg

<svg clip-rule="evenodd" fill-rule="evenodd" stroke-linecap="square" stroke-miterlimit="2" viewBox="0 0 100 100" xmlns="http://www.w3.org/2000/svg"><path d="m0 10.684h12.337l3.084-5.342-3.084-5.342h-6.168z" fill="#fff" stroke="#000" stroke-width="1.18" transform="matrix(0 4.79363636272 -4.79363636272 0 54.562905414 2.69069238)"/><path d="m.821-3.07c-.907 0-1.644.736-1.644 1.646 0 .907.736 1.644 1.644 1.644.91 0 1.646-.737 1.646-1.646 0-.908-.737-1.644-1.646-1.644" transform="matrix(-2.39695947786 -4.15133073302 -4.15133073302 2.39695947786 25.007633916 53.87393654)"/><g stroke="#000" stroke-width="1.18"><path d="m-.716 2.671h10.685" fill="none" stroke-linecap="butt" transform="matrix(2.39674470718 4.15145507394 4.15145507394 -2.39674470718 -6.025598972 12.06147626)"/><path d="m-3.851-6.67h10.01v3.115h-10.01z" fill="#fff" transform="matrix(-4.15130247372 2.3970103446 2.3970103446 4.15130247372 62.535984316 94.1490909)"/></g></svg>

<?xml version="1.0" encoding="UTF-8" standalone="no"?>
<!DOCTYPE svg PUBLIC "-//W3C//DTD SVG 1.1//EN" "http://www.w3.org/Graphics/SVG/1.1/DTD/svg11.dtd">
<svg width="100%" height="100%" viewBox="0 0 100 100" version="1.1" xmlns="http://www.w3.org/2000/svg" xmlns:xlink="http://www.w3.org/1999/xlink" xml:space="preserve" xmlns:serif="http://www.serif.com/" style="fill-rule:evenodd;clip-rule:evenodd;stroke-linecap:square;stroke-miterlimit:2;">
    <g transform="matrix(3.13741e-16,5.65186,-5.65186,3.13741e-16,319.014,-1613.08)">
        <g transform="matrix(0.848152,0,0,0.848152,285.883,46.7901)">
            <path d="M0,10.684L12.337,10.684L15.421,5.342L12.337,0L6.169,0L0,10.684Z" style="fill:white;stroke:black;stroke-width:1.18px;"/>
        </g>
        <g transform="matrix(-0.734507,0.424101,0.424101,0.734507,294.939,52.0194)">
            <path d="M0.821,-3.07C-0.086,-3.07 -0.823,-2.334 -0.823,-1.424C-0.823,-0.517 -0.087,0.22 0.821,0.22C1.731,0.22 2.467,-0.517 2.467,-1.426C2.467,-2.334 1.73,-3.07 0.821,-3.07"/>
        </g>
        <g transform="matrix(0.734529,-0.424063,-0.424063,-0.734529,287.541,57.5102)">
            <path d="M-0.716,2.671L9.969,2.671" style="fill:none;stroke:black;stroke-width:1.18px;stroke-linecap:butt;"/>
        </g>
        <g transform="matrix(0.42411,0.734502,0.734502,-0.42411,302.065,45.3794)">
            <rect x="-3.851" y="-6.67" width="10.01" height="3.115" style="fill:white;stroke:black;stroke-width:1.18px;"/>
        </g>
    </g>
</svg>
